X:235
T:Kitty's Wedding
M:C|
L:1/8
Q:120
R:Hornpipe (Key of D)
K:D
fe |: "D"d2Bd A2FA | "G"BAFA "D"D2 (3FED | B,DA,D DFBF | AFDF "A"E2fe |
"D"d2Bd A2FA | "G"BAFA "D"D2 (3FED|B,DA,D DFBF |1 "A"AFEF "D"D2fe :|2
"A"AFEF "D"D2fg|:
"D"afed "G"bafd | "D"Adfd "G"edBd | "D"DFAd FAde | fdgf "A"e2fg |
"D"afed "G"bafd | "D"Adfd "G"edBd | "D"DFAd FAdf |1 "A"eABc "D"d2fg :|2
"A"eABc "D"d2 |]
